symbols/web/looks_two/materialsymbolssharp/looks_two_wght100gradN25_24px.svg

<svg xmlns="http://www.w3.org/2000/svg" height="24" width="24"><path d="M9.7 16.275h4.6v-.625h-3.95v-3.325h3.95V7.7H9.7v.65h3.975v3.325H9.7Zm-5.275 3.3V4.4H19.6v15.175Zm.625-.625h13.9V5.05H5.05Zm0 0V5.05v13.9Z"/></svg>

<svg xmlns="http://www.w3.org/2000/svg" height="24" width="24"><path d="M9.7 16.275H14.3V15.65H10.35V12.325H14.3V7.7H9.7V8.35H13.675V11.675H9.7ZM4.425 19.575V4.4H19.6V19.575ZM5.05 18.95H18.95V5.05H5.05ZM5.05 18.95V5.05V18.95Z"/></svg>
